frontend/src/assets/img/bg-logo.svg

<svg width="284" height="76" viewBox="0 0 284 76" fill="none" xmlns="http://www.w3.org/2000/svg">
<path d="M74 49.7305V37.9965V26.2648L74.3434 26.0879L74 25.4212H73.25V25.8074L72.0228 26.4394C64.2056 30.4652 55.4161 33.1281 46.6006 34.1416C44.4635 34.3873 41.5553 34.6053 41.4758 34.5257C41.4431 34.4931 41.4685 33.7328 41.5324 32.8362C42.2511 22.7484 44.9113 13.1364 49.4625 4.1826L50.1906 2.75H50.5719V2L49.9033 1.66017L49.7305 2H37.9993H26.2687L26.0947 1.65906L25.4267 2V2.75H25.8095L26.4394 3.97722C30.4652 11.7944 33.1281 20.5839 34.1416 29.3994C34.3873 31.5365 34.6053 34.4447 34.5257 34.5242C34.4931 34.5569 33.7328 34.5315 32.8362 34.4676C22.7484 33.7489 13.1364 31.0887 4.1826 26.5375L2.75 25.8094V25.4281L2 26.0967L2.34728 24.7436L1.25 24.1703V25.4083V37.9909V50.5733V51.7981L2.34094 51.2413L4.42083 50.1798C12.3832 46.1158 20.91 43.5648 29.9182 42.5532C30.8629 42.4471 32.0067 42.3463 32.9226 42.2813C33.2421 42.2586 33.5309 42.2405 33.7719 42.2281C33.7595 42.4691 33.7414 42.7579 33.7187 43.0774C33.6537 43.9933 33.5529 45.1371 33.4468 46.0818C32.951 50.4964 31.9648 55.3481 30.7614 59.2993C29.3963 63.7821 27.6243 68.139 25.5619 72.0864L24.7469 73.6518L24.1712 74.75H25.4112H37.9923H50.5733H51.7981L51.2413 73.6591L50.1798 71.5792C46.1158 63.6168 43.5648 55.09 42.5532 46.0818C42.4471 45.1371 42.3463 43.9933 42.2813 43.0774C42.2586 42.7579 42.2405 42.4691 42.2281 42.2281C42.4691 42.2405 42.7579 42.2586 43.0774 42.2813C43.9933 42.3463 45.1371 42.4471 46.0818 42.5532C50.4964 43.049 55.3481 44.0352 59.2993 45.2386C63.7821 46.6037 68.139 48.3757 72.0864 50.4381L73.6602 51.2404L74.75 51.7944V50.5719V37.9965V25.4212Z" stroke="#FBBC33" stroke-width="1.5"/>
<path d="M96.96 46V34.64H90.56V31.12H108.08V34.64H101.66V46H96.96ZM115.752 46.3H114.352C108.112 46.3 106.612 43.22 106.612 40.74V40.38C106.612 37.9 108.092 34.94 114.332 34.94H115.752C122.312 34.94 123.452 37.94 123.452 40.38V40.74C123.452 43.22 122.392 46.3 115.752 46.3ZM115.052 43.4C118.092 43.4 118.932 41.88 118.932 40.62V40.52C118.932 39.18 118.072 37.8 115.072 37.8H115.052C112.012 37.8 111.172 39.16 111.172 40.52V40.62C111.172 41.88 112.012 43.4 115.052 43.4ZM139.707 35.24V46H135.287V44.14C134.747 44.64 133.187 46.24 130.067 46.24H129.907C126.207 46.24 124.787 43.96 124.787 41.94V35.24H129.287V40.56C129.287 42.16 130.147 43.24 132.047 43.24C133.987 43.24 135.247 42.08 135.247 40.32V35.24H139.707ZM146.045 40.44V46H141.585V35.24H146.005V37.14C146.385 36.54 147.685 35 150.365 35H150.585C153.705 35 154.965 37.02 154.965 39.8V40.42H150.665C150.665 39.04 150.065 37.84 148.385 37.84H148.365C146.865 37.84 146.045 39.06 146.045 40.44ZM156.292 31.12H160.752V36.74C161.232 36.36 162.912 34.98 166.132 34.98H166.492C171.372 34.98 173.072 37.44 173.072 40.38V40.76C173.072 43.66 171.132 46.26 166.352 46.26H166.012C162.932 46.26 161.112 44.9 160.692 44.48C160.552 44.9 160.472 45.5 160.412 46H156.292V31.12ZM160.752 40.54V40.62C160.752 41.96 162.012 43.42 164.632 43.42H164.752C167.652 43.42 168.512 41.92 168.512 40.62V40.54C168.512 39.16 167.652 37.76 164.752 37.76H164.632C161.972 37.76 160.752 39.16 160.752 40.54ZM178.994 31.12V34.2H174.534V31.12H178.994ZM178.994 35.24V46H174.534V35.24H178.994ZM185.341 31.12V46H180.881V31.12H185.341ZM191.689 31.12V46H187.229V31.12H191.689ZM202.217 46.3H200.817C194.577 46.3 193.077 43.22 193.077 40.74V40.38C193.077 37.9 194.557 34.94 200.797 34.94H202.217C208.777 34.94 209.917 37.94 209.917 40.38V40.74C209.917 43.22 208.857 46.3 202.217 46.3ZM201.517 43.4C204.557 43.4 205.397 41.88 205.397 40.62V40.52C205.397 39.18 204.537 37.8 201.537 37.8H201.517C198.477 37.8 197.637 39.16 197.637 40.52V40.62C197.637 41.88 198.477 43.4 201.517 43.4ZM211.292 46V35.24H215.712V37.08C216.252 36.54 217.852 35 221.052 35H221.192C224.952 35 226.432 37.12 226.432 39.2V46H221.932V40.68C221.932 39.02 221.032 38 219.052 38C217.052 38 215.752 39.16 215.752 40.92V46H211.292ZM245.777 41.04H239.277V46H234.617V31.12H245.777C251.137 31.12 252.717 33.24 252.717 35.96V36.16C252.717 38.82 251.097 41.04 245.777 41.04ZM239.277 34.5V37.7H245.697C247.157 37.7 247.857 37.16 247.857 36.14V36.08C247.857 35.06 247.197 34.5 245.697 34.5H239.277ZM263.253 41.22V40.88L258.993 41.54C257.853 41.72 257.373 41.92 257.373 42.54V42.56C257.373 43.14 257.812 43.78 259.333 43.78C261.713 43.78 263.253 42.5 263.253 41.22ZM263.372 44.52C262.912 45.1 261.553 46.2 258.393 46.2H258.133C254.513 46.2 253.133 44.52 253.133 42.68V42.54C253.133 40.56 254.433 39.62 257.653 39.32L262.573 38.86C263.073 38.8 263.253 38.64 263.253 38.3C263.253 37.9 263.073 37.42 260.453 37.42H260.353C257.693 37.42 257.593 38.26 257.533 38.62H253.393V38.58C253.393 37.16 253.813 34.94 259.813 34.94H260.913C267.153 34.94 267.553 36.86 267.553 38.42V42.54C267.553 42.86 267.653 43.08 268.113 43.08H268.693V46H265.073C264.213 46 263.533 45.54 263.372 44.52ZM270.349 49.76V46.56H272.869C273.289 46.56 273.389 46.44 273.389 46.22C273.389 46 273.209 45.7 272.889 45.08L267.749 35.24H272.549L276.009 42.52L279.369 35.24H283.849L278.209 46.72C277.189 48.74 276.189 49.76 274.249 49.76H270.349Z" fill="#FBB82E"/>
</svg>

<svg xmlns="http://www.w3.org/2000/svg" width="284" height="76" fill="none">
  <path stroke="#FBBC33" stroke-width="1.5" d="M74 49.73V26.265l.343-.177L74 25.42h-.75v.386l-1.227.632c-7.817 4.026-16.607 6.69-25.422 7.703-2.137.245-5.046.463-5.125.384-.033-.033-.008-.793.056-1.69.72-10.088 3.38-19.7 7.93-28.653l.729-1.433h.38V2l-.668-.34-.172.34H26.268l-.174-.34-.668.34v.75h.383l.63 1.227c4.025 7.817 6.688 16.607 7.702 25.422.245 2.137.463 5.046.384 5.125-.033.033-.793.008-1.69-.056-10.088-.72-19.7-3.38-28.653-7.93l-1.433-.729v-.38l-.75.668.347-1.353-1.097-.574v27.628l1.09-.557 2.08-1.061c7.963-4.064 16.49-6.615 25.498-7.627a79.128 79.128 0 0 1 3.005-.272c.32-.022.608-.04.849-.053-.012.241-.03.53-.053.85-.065.915-.166 2.06-.272 3.004-.496 4.414-1.482 9.266-2.686 13.217-1.365 4.483-3.137 8.84-5.2 12.787l-.814 1.566-.576 1.098h27.628l-.557-1.09-1.061-2.08c-4.064-7.963-6.615-16.49-7.627-25.498a79.128 79.128 0 0 1-.272-3.005c-.022-.32-.04-.608-.053-.849.241.012.53.03.85.053.915.065 2.06.166 3.004.272 4.414.496 9.266 1.482 13.217 2.686 4.483 1.365 8.84 3.137 12.787 5.2l1.574.801 1.09.554V25.421Z"/>
  <path fill="#FBB82E" d="M96.96 46V34.64h-6.4v-3.52h17.52v3.52h-6.42V46h-4.7Zm18.792.3h-1.4c-6.24 0-7.74-3.08-7.74-5.56v-.36c0-2.48 1.48-5.44 7.72-5.44h1.42c6.56 0 7.7 3 7.7 5.44v.36c0 2.48-1.06 5.56-7.7 5.56Zm-.7-2.9c3.04 0 3.88-1.52 3.88-2.78v-.1c0-1.34-.86-2.72-3.86-2.72h-.02c-3.04 0-3.88 1.36-3.88 2.72v.1c0 1.26.84 2.78 3.88 2.78Zm24.655-8.16V46h-4.42v-1.86c-.54.5-2.1 2.1-5.22 2.1h-.16c-3.7 0-5.12-2.28-5.12-4.3v-6.7h4.5v5.32c0 1.6.86 2.68 2.76 2.68 1.94 0 3.2-1.16 3.2-2.92v-5.08h4.46Zm6.338 5.2V46h-4.46V35.24h4.42v1.9c.38-.6 1.68-2.14 4.36-2.14h.22c3.12 0 4.38 2.02 4.38 4.8v.62h-4.3c0-1.38-.6-2.58-2.28-2.58h-.02c-1.5 0-2.32 1.22-2.32 2.6Zm10.247-9.32h4.46v5.62c.48-.38 2.16-1.76 5.38-1.76h.36c4.88 0 6.58 2.46 6.58 5.4v.38c0 2.9-1.94 5.5-6.72 5.5h-.34c-3.08 0-4.9-1.36-5.32-1.78-.14.42-.22 1.02-.28 1.52h-4.12V31.12Zm4.46 9.42v.08c0 1.34 1.26 2.8 3.88 2.8h.12c2.9 0 3.76-1.5 3.76-2.8v-.08c0-1.38-.86-2.78-3.76-2.78h-.12c-2.66 0-3.88 1.4-3.88 2.78Zm18.242-9.42v3.08h-4.46v-3.08h4.46Zm0 4.12V46h-4.46V35.24h4.46Zm6.347-4.12V46h-4.46V31.12h4.46Zm6.348 0V46h-4.46V31.12h4.46Zm10.528 15.18h-1.4c-6.24 0-7.74-3.08-7.74-5.56v-.36c0-2.48 1.48-5.44 7.72-5.44h1.42c6.56 0 7.7 3 7.7 5.44v.36c0 2.48-1.06 5.56-7.7 5.56Zm-.7-2.9c3.04 0 3.88-1.52 3.88-2.78v-.1c0-1.34-.86-2.72-3.86-2.72h-.02c-3.04 0-3.88 1.36-3.88 2.72v.1c0 1.26.84 2.78 3.88 2.78Zm9.775 2.6V35.24h4.42v1.84c.54-.54 2.14-2.08 5.34-2.08h.14c3.76 0 5.24 2.12 5.24 4.2V46h-4.5v-5.32c0-1.66-.9-2.68-2.88-2.68-2 0-3.3 1.16-3.3 2.92V46h-4.46Zm34.485-4.96h-6.5V46h-4.66V31.12h11.16c5.36 0 6.94 2.12 6.94 4.84v.2c0 2.66-1.62 4.88-6.94 4.88Zm-6.5-6.54v3.2h6.42c1.46 0 2.16-.54 2.16-1.56v-.06c0-1.02-.66-1.58-2.16-1.58h-6.42Zm23.976 6.72v-.34l-4.26.66c-1.14.18-1.62.38-1.62 1v.02c0 .58.439 1.22 1.96 1.22 2.38 0 3.92-1.28 3.92-2.56Zm.119 3.3c-.46.58-1.819 1.68-4.979 1.68h-.26c-3.62 0-5-1.68-5-3.52v-.14c0-1.98 1.3-2.92 4.52-3.22l4.92-.46c.5-.06.68-.22.68-.56 0-.4-.18-.88-2.8-.88h-.1c-2.66 0-2.76.84-2.82 1.2h-4.14v-.04c0-1.42.42-3.64 6.42-3.64h1.1c6.24 0 6.64 1.92 6.64 3.48v4.12c0 .32.1.54.56.54h.58V46h-3.62c-.86 0-1.54-.46-1.701-1.48Zm6.977 5.24v-3.2h2.52c.42 0 .52-.12.52-.34 0-.22-.18-.52-.5-1.14l-5.14-9.84h4.8l3.46 7.28 3.36-7.28h4.48l-5.64 11.48c-1.02 2.02-2.02 3.04-3.96 3.04h-3.9Z"/>
</svg>
